icons/svgs/paper-plane-outline.svg

<svg width="24" height="24" viewBox="0 0 24 24" fill="none" xmlns="http://www.w3.org/2000/svg">
<path d="M2.62499 12.1954L20.125 2.19535C20.5156 1.96098 21.0625 1.96098 21.4531 2.23441C21.8437 2.50785 22.0391 2.9766 21.9609 3.44535L19.4609 19.6954C19.3437 20.4766 18.4844 20.9844 17.7422 20.6719L12.8984 18.6407L10.4766 21.5704C10.2422 21.8438 9.89062 22 9.49999 22C8.79687 22 8.24999 21.4532 8.24999 20.75V16.6875L2.74218 14.4219C1.80468 14.0313 1.72656 12.7032 2.62499 12.1954ZM4.65624 13.1719L9.46093 15.1641L9.42187 15.125L17.9766 5.55473L4.65624 13.1719ZM17.7422 18.6407L19.5781 6.57035L11.2187 15.9063L17.7422 18.6407Z" fill="black"/>
</svg>

<svg xmlns="http://www.w3.org/2000/svg" width="24" height="24" fill="currentColor" class="icon-paper-plane-outline" viewBox="0 0 24 24">
  <mask id="a" width="21" height="20" x="1" y="2" maskUnits="userSpaceOnUse" style="mask-type:alpha">
    <path d="m2.625 12.195 17.5-10c.39-.234.938-.234 1.328.04.39.273.586.742.508 1.21l-2.5 16.25c-.117.782-.977 1.29-1.719.977l-4.844-2.031-2.421 2.93A1.27 1.27 0 0 1 9.5 22c-.703 0-1.25-.547-1.25-1.25v-4.062l-5.508-2.266c-.937-.39-1.015-1.719-.117-2.227m2.031.977 4.805 1.992-.04-.039 8.556-9.57zm13.086 5.469 1.836-12.07-8.36 9.335z"/>
  </mask>
  <g mask="url(#a)">
    <path d="M0 0h24v24H0z"/>
  </g>
</svg>
